dist/images/phone.svg

<svg width="21" height="21" viewBox="0 0 21 21" fill="none" xmlns="http://www.w3.org/2000/svg">
<path d="M6.38028 7.85335C7.07627 9.30297 8.02506 10.6616 9.22664 11.8632C10.4282 13.0648 11.7869 14.0136 13.2365 14.7096C13.3612 14.7694 13.4235 14.7994 13.5024 14.8224C13.7828 14.9041 14.127 14.8454 14.3644 14.6754C14.4313 14.6275 14.4884 14.5704 14.6027 14.4561C14.9523 14.1064 15.1271 13.9316 15.3029 13.8174C15.9658 13.3864 16.8204 13.3864 17.4833 13.8174C17.6591 13.9316 17.8339 14.1064 18.1835 14.4561L18.3783 14.6509C18.9098 15.1824 19.1755 15.4481 19.3198 15.7335C19.6069 16.301 19.6069 16.9713 19.3198 17.5389C19.1755 17.8242 18.9098 18.09 18.3783 18.6214L18.2207 18.779C17.6911 19.3087 17.4263 19.5735 17.0662 19.7757C16.6667 20.0001 16.0462 20.1615 15.588 20.1601C15.1751 20.1589 14.8928 20.0788 14.3284 19.9186C11.295 19.0576 8.43264 17.4332 6.04466 15.0452C3.65668 12.6572 2.03221 9.79483 1.17124 6.76144C1.01103 6.19699 0.930924 5.91477 0.929696 5.50182C0.928332 5.0436 1.08969 4.42311 1.31411 4.0236C1.51636 3.66357 1.78117 3.39876 2.3108 2.86913L2.46843 2.7115C2.99987 2.18006 3.2656 1.91433 3.55098 1.76999C4.11854 1.48292 4.7888 1.48292 5.35636 1.76999C5.64174 1.91433 5.90747 2.18006 6.43891 2.7115L6.63378 2.90637C6.98338 3.25597 7.15819 3.43078 7.27247 3.60655C7.70347 4.26945 7.70347 5.12403 7.27247 5.78692C7.15819 5.96269 6.98338 6.1375 6.63378 6.4871C6.51947 6.60142 6.46231 6.65857 6.41447 6.72538C6.24446 6.96281 6.18576 7.30707 6.26748 7.58743C6.29048 7.66632 6.32041 7.72866 6.38028 7.85335Z" stroke="white" stroke-width="1.5" stroke-linecap="round" stroke-linejoin="round"/>
</svg>

<svg width="21" height="21" fill="none" xmlns="http://www.w3.org/2000/svg"><path d="M6.38 7.853a14.602 14.602 0 002.847 4.01 14.602 14.602 0 004.01 2.847c.124.06.187.09.265.112.28.082.625.023.862-.147.067-.048.124-.105.239-.219.35-.35.524-.524.7-.639a2 2 0 012.18 0c.176.115.35.29.7.64l.195.194c.532.531.797.797.942 1.082a2 2 0 010 1.806c-.145.285-.41.551-.942 1.082l-.157.158c-.53.53-.795.794-1.155.997-.4.224-1.02.386-1.478.384-.413-.001-.695-.081-1.26-.241a19.038 19.038 0 01-8.283-4.874A19.039 19.039 0 011.17 6.761c-.16-.564-.24-.846-.241-1.26a3.377 3.377 0 01.384-1.477c.202-.36.467-.625.997-1.155l.157-.158c.532-.53.798-.797 1.083-.941a2 2 0 011.805 0c.286.144.551.41 1.083.942l.195.194c.35.35.524.525.638.7a2 2 0 010 2.18c-.114.177-.289.352-.638.701a2.037 2.037 0 00-.22.238 1.05 1.05 0 00-.147.862c.023.08.053.142.113.266z" stroke="#fff" stroke-width="1.5" stroke-linecap="round" stroke-linejoin="round"/></svg>
